X:1
T: Gladstone
C:J. Scott Skinner
R:Reel
Q: 232
K:A
M:4/4
L:1/8
|: d | cAdB efga | A/A/A cA BGEd | cAdB efga | ecdB A2Ad :| 
|: g | afba geag | fdgf ecfe | dBed ceaf | ecdB A3 :| 
